packages/core/assets/Icons/arrow_angle_down_right.svg

<svg viewBox="0 0 20 20" fill="none" xmlns="http://www.w3.org/2000/svg">
<path d="M13.4791 11.6667L5.83329 11.6667L5.83329 4.16669C5.83329 3.93058 5.75343 3.73266 5.59371 3.57294C5.43399 3.41322 5.23607 3.33336 4.99996 3.33336C4.76385 3.33336 4.56593 3.41322 4.40621 3.57294C4.24649 3.73266 4.16663 3.93058 4.16663 4.16669L4.16663 11.6667C4.16663 12.125 4.32982 12.5174 4.65621 12.8438C4.9826 13.1702 5.37496 13.3334 5.83329 13.3334L13.4791 13.3334L11.0833 15.7292C10.9166 15.8959 10.8298 16.0938 10.8229 16.3229C10.8159 16.5521 10.8958 16.75 11.0625 16.9167C11.2291 17.0834 11.427 17.1667 11.6562 17.1667C11.8854 17.1667 12.0833 17.0834 12.25 16.9167L16.0833 13.0834C16.1666 13 16.2257 12.9097 16.2604 12.8125C16.2951 12.7153 16.3125 12.6111 16.3125 12.5C16.3125 12.3889 16.2951 12.2847 16.2604 12.1875C16.2257 12.0903 16.1666 12 16.0833 11.9167L12.2291 8.06252C12.0625 7.89586 11.868 7.81599 11.6458 7.82294C11.4236 7.82988 11.2291 7.91669 11.0625 8.08336C10.9097 8.25002 10.8298 8.44447 10.8229 8.66669C10.8159 8.88891 10.8958 9.08336 11.0625 9.25002L13.4791 11.6667Z" fill="currentColor"/>
</svg>

<svg xmlns="http://www.w3.org/2000/svg" width="20" height="20" fill="none" viewBox="0 0 20 20">
  <path fill="#201F1F" d="M13.48 11.667H5.832v-7.5a.806.806 0 0 0-.24-.594.806.806 0 0 0-.593-.24.806.806 0 0 0-.594.24.806.806 0 0 0-.24.594v7.5c0 .458.164.85.49 1.177.327.326.719.49 1.177.49h7.646l-2.396 2.395a.85.85 0 0 0-.26.594.775.775 0 0 0 .24.594.81.81 0 0 0 .593.25c.23 0 .427-.084.594-.25l3.833-3.834a.732.732 0 0 0 .177-.27.923.923 0 0 0 .052-.313.923.923 0 0 0-.052-.313.731.731 0 0 0-.177-.27L12.23 8.063a.763.763 0 0 0-.583-.24.839.839 0 0 0-.584.26.879.879 0 0 0-.24.584.763.763 0 0 0 .24.583l2.417 2.417Z"/>
</svg>
